resources/svg/google-streetview-o.svg

<svg width="15" height="15" viewBox="0 0 15 15" fill="none" xmlns="http://www.w3.org/2000/svg">
<path d="M4.5 11.5H4C4 11.7761 4.22386 12 4.5 12V11.5ZM10.5 11.5V12C10.7761 12 11 11.7761 11 11.5H10.5ZM4.5 12H10.5V11H4.5V12ZM11 11.5V9.5H10V11.5H11ZM4 9.5V11.5H5V9.5H4ZM7.5 6C5.567 6 4 7.567 4 9.5H5C5 8.11929 6.11929 7 7.5 7V6ZM11 9.5C11 7.567 9.433 6 7.5 6V7C8.88071 7 10 8.11929 10 9.5H11ZM14 11.5C14 11.7451 13.8862 12.0204 13.594 12.3165C13.2997 12.6147 12.8491 12.9061 12.2528 13.1617C11.0619 13.6721 9.3819 14 7.5 14V15C9.48409 15 11.3041 14.6563 12.6467 14.0808C13.3171 13.7935 13.8916 13.4385 14.3058 13.0189C14.722 12.5971 15 12.0833 15 11.5H14ZM7.5 14C5.6181 14 3.93808 13.6721 2.74721 13.1617C2.15089 12.9061 1.70026 12.6147 1.40597 12.3165C1.1138 12.0204 1 11.7451 1 11.5H0C0 12.0833 0.27795 12.5971 0.694221 13.0189C1.10837 13.4385 1.68286 13.7935 2.35329 14.0808C3.69593 14.6563 5.51591 15 7.5 15V14ZM1 11.5C1 11.258 1.1108 10.9868 1.39448 10.6952C1.68043 10.4012 2.11881 10.1128 2.70035 9.85849L2.29965 8.94229C1.644 9.22903 1.08238 9.58178 0.677627 9.99794C0.270611 10.4164 0 10.9245 0 11.5H1ZM12.2996 9.85849C12.8812 10.1128 13.3196 10.4012 13.6055 10.6952C13.8892 10.9868 14 11.258 14 11.5H15C15 10.9245 14.7294 10.4164 14.3224 9.99794C13.9176 9.58178 13.356 9.22903 12.7004 8.94229L12.2996 9.85849ZM7.5 4C6.67157 4 6 3.32843 6 2.5H5C5 3.88071 6.11929 5 7.5 5V4ZM9 2.5C9 3.32843 8.32843 4 7.5 4V5C8.88071 5 10 3.88071 10 2.5H9ZM7.5 1C8.32843 1 9 1.67157 9 2.5H10C10 1.11929 8.88071 0 7.5 0V1ZM7.5 0C6.11929 0 5 1.11929 5 2.5H6C6 1.67157 6.67157 1 7.5 1V0Z" fill="black"/>
</svg>

<svg viewBox="0 0 15 15" fill="none" xmlns="http://www.w3.org/2000/svg" fill="currentColor"><path d="M4.5 11.5H4a.5.5 0 00.5.5v-.5zm6 0v.5a.5.5 0 00.5-.5h-.5zm-6 .5h6v-1h-6v1zm6.5-.5v-2h-1v2h1zm-7-2v2h1v-2H4zM7.5 6A3.5 3.5 0 004 9.5h1A2.5 2.5 0 017.5 7V6zM11 9.5A3.5 3.5 0 007.5 6v1A2.5 2.5 0 0110 9.5h1zm3 2c0 .245-.114.52-.406.816-.294.299-.745.59-1.341.846-1.191.51-2.871.838-4.753.838v1c1.984 0 3.804-.344 5.147-.92.67-.287 1.245-.642 1.659-1.061.416-.422.694-.936.694-1.519h-1zM7.5 14c-1.882 0-3.562-.328-4.753-.838-.596-.256-1.047-.547-1.341-.846C1.114 12.02 1 11.746 1 11.5H0c0 .583.278 1.097.694 1.519.414.42.989.774 1.66 1.062C3.695 14.656 5.515 15 7.5 15v-1zM1 11.5c0-.242.11-.513.394-.805.286-.294.725-.582 1.306-.837l-.4-.916c-.656.287-1.218.64-1.622 1.056C.27 10.416 0 10.925 0 11.5h1zm11.3-1.642c.581.255 1.02.543 1.305.837.284.292.395.563.395.805h1c0-.575-.27-1.084-.678-1.502-.404-.416-.966-.769-1.622-1.056l-.4.916zM7.5 4A1.5 1.5 0 016 2.5H5A2.5 2.5 0 007.5 5V4zM9 2.5A1.5 1.5 0 017.5 4v1A2.5 2.5 0 0010 2.5H9zM7.5 1A1.5 1.5 0 019 2.5h1A2.5 2.5 0 007.5 0v1zm0-1A2.5 2.5 0 005 2.5h1A1.5 1.5 0 017.5 1V0z" fill="currentColor"/></svg>
